X: 34274
T: Remember Me
R: hornpipe
M: 4/4
K: Gmajor
d>gd>B G>dB>G|F>cA>F G>dB>G|F>D^C>D E>FG>A|B>cd>^c e>dB>=c|
d>gd>B G>dB>G|A>ec>A G>dB>G|F>Ac>A F>DE>F|G2 G2 G2:|
B>d^c>d =c>dA>d|B>dG>d F>dG>d|B>d^c>d =c>dA>d|B>d^c>d e>dB>=c|
d>gd>B G>dB>G|F>cA>F G>dB>G|F>Ac>A F>DE>F|G2 G2 G2:|

